X: 18072
T: Humours Of Ballycastle, The
R: jig
M: 6/8
K: Amajor
E|{B}AGA cBA|faf ecA|{B}AGA cBc|FGA BGE|
{B}AGA cBA|faf ecA|BdB cec|ABA A2:|
|:g|agf efg|aba gfe|(c/f/)zf (f2e)|(c/f/)zf (f2g)|
agf edc|faf ecA|BdB cec|ABA A2:|

